X: 20493
M: C
L: 1/8
K: D
f>dg>f e>FE>F | D/D/D A>B AFD :|
|: g |\
f>dd>f g>feg | fdd>f a/g/f/e/ d>g |\
f>dd>f g>f (ef/g/) | a>gfe d>efd |\
(e/f/g) (f/g/a) e>FE>F | D/D/D d>B AFD :|


